T: Rocks Of Cashel, The
M: 2/4
L: 1/8
K: Dmaj
|: DF A2 | AG/F/ A2 | DF A2 | AG/F/ EF | DF A2 | AG/F/ A2 | dB AG/F/ | GE EF :||: DF d2 | cB/A/ d2 | DF dF | BE EF | DF d2 | cB/A/ d2 | dB AG/F/ | GE EF :||: DF Fd | FE FA | DF Fd  | GE EF | DF/G/ AF | BG cA | dB AG/F/ | GE EF :|
